X: 34135
T: Reel Du Maringouin
R: reel
M: 4/4
K: Dmajor
Ac|:"D"dfaf "G"gfed|"A"cdef edcB|AGFD "Em"E2EE|
E2ef "A"edcB|AFGA "G"BABc|d2cB "A"Acdf|edcd efg2|
"Em"fgag "A7"bgec|1 "D"d2d4c2:|2 "D"d2d4A2-||
|:"D"A2FA DAFA|DAFA A2Bc|d2cB AGFE|D2FD A2FA|
"G"GFED "A"CA,E2|A,ECE A,ECE|"D"D2FD A2FA|DAFA A2Bc|
ddcB A2"G"g2|"Em"fgag "A7"bgec|1 "D"d2d4A2-:|2 "D"d2d6||

